ArticleTemplates/assets/img/match-status--p.svg

<?xml version="1.0" encoding="utf-8"?>
<!-- Generator: Adobe Illustrator 16.0.0, SVG Export Plug-In . SVG Version: 6.00 Build 0)  -->
<!DOCTYPE svg PUBLIC "-//W3C//DTD SVG 1.1//EN" "http://www.w3.org/Graphics/SVG/1.1/DTD/svg11.dtd">
<svg version="1.1" id="Layer_1" xmlns="http://www.w3.org/2000/svg" xmlns:xlink="http://www.w3.org/1999/xlink" x="0px" y="0px"
	 width="88px" height="88px" viewBox="0 0 88 88" enable-background="new 0 0 88 88" xml:space="preserve">
<path fill-rule="evenodd" clip-rule="evenodd" fill="#FFFFFF" d="M44,2c23.195,0,42,18.804,42,42c0,23.195-18.805,42-42,42
	C20.804,86,2,67.195,2,44C2,20.804,20.804,2,44,2z"/>
<path fill="#4BC6DF" d="M44,80C24.149,80,8,63.851,8,44S24.149,8,44,8s36,16.149,36,36S63.851,80,44,80z M44,12
	c-17.645,0-32,14.355-32,32c0,17.645,14.355,32,32,32s32-14.355,32-32C76,26.355,61.645,12,44,12z"/>
<path fill="#4BC6DF" d="M44,88C19.738,88,0,68.262,0,44S19.738,0,44,0s44,19.738,44,44S68.262,88,44,88z M44,4
	C21.944,4,4,21.944,4,44c0,22.056,17.944,40,40,40s40-17.944,40-40C84,21.944,66.056,4,44,4z"/>
</svg>

<svg xmlns="http://www.w3.org/2000/svg" width="88" height="88" viewBox="0 0 88 88">
	<circle fill="#FFF" cx="44.5" cy="44.5" r="42.5"/>
	<path fill="#4BC6DF" d="M44 80c-20 0-36-16-36-36s16-36 36-36 36 16 36 36-16 36-36 36zm0-68c-18 0-32 14-32 32s14 32 32 32 32-14 32-32-14-32-32-32zM44 88c-24 0-44-20-44-44s20-44 44-44 44 20 44 44-20 44-44 44zm0-84c-22 0-40 18-40 40s18 40 40 40 40-18 40-40-18-40-40-40z"/>
</svg>
